plasma/desktoptheme/Monochrome/icons/akregator.svg

<svg width="32" height="32" version="1.1" viewBox="0 0 32 32" xmlns="http://www.w3.org/2000/svg">
 <g id="22-22-akregator" transform="translate(31.881356,7.8559322)">
  <rect width="22" height="22" style="fill-opacity:0;opacity:.00100002"/>
  <path d="m5.0000005 2.9999997c-1.108 0-2 0.8920001-2 2.0000001v12c0 1.108 0.892 2 2 2h12c1.108 0 2-0.892 2-2 0-14-9.9999995-14-14-14zm0 2.0000001c6.2222215 0 9.4609935 2.2049917 10.884766 4.9101562 1.42377 2.705164 1.115234 5.700955 1.115234 7.089844h-2c0-1.611111 0.191463-4.115322-0.884766-6.160156-1.076229-2.0448362-3.337456-3.8398442-9.115234-3.8398442zm0 4c3.910823 0 6.1296825 1.1321932 7.1582015 2.8632812s0.841797 3.688319 0.841797 5.136719h-2c0-1.5516 0.04484-3.094371-0.560547-4.113282-0.6053805-1.018911-1.8858795-1.886718-5.4394515-1.886718zm2.001953 3.9999992c1.104335 0 1.997387 0.896324 1.998046 2.000001 0 1.104994-0.893711 2-1.998046 2-1.106972 0-2.001953-0.895006-2.001953-2 0-1.103677 0.894981-2.000001 2.001953-2.000001z" style="fill:#aaaaac"/>
 </g>
 <g id="akregator">
  <rect width="32" height="32" style="opacity:.00100002"/>
  <g transform="translate(-2e-4)">
   <path d="m29 25.1c0-13-9.1-22.1-22.1-22.1-1.95 0-3.9 1.95-3.9 3.9v18.2c0 1.95 1.95 3.9 3.9 3.9h18.2c1.95 0 3.9-1.95 3.9-3.9z" style="fill:#f59335"/>
   <path d="m6 10.5c0 1.056 0.4491 1.5 1.5 1.5 7.456 0 13.5 6.044 13.5 13.5 0 0.933 0.509 1.5 1.5 1.5 1.02 0 1.5-0.596 1.5-1.5 0-9.113-7.387-16.5-16.5-16.5-0.9974 0-1.5 0.4855-1.5 1.5zm0 6c0 1.0274 0.42023 1.5 1.5 1.5 4.1422 0 7.5 3.3579 7.5 7.5 0 0.88301 0.50689 1.5 1.5 1.5 0.969 0 1.5-0.538 1.5-1.5 0-5.799-4.701-10.5-10.5-10.5-0.9686 0-1.5 0.428-1.5 1.5zm3 4.5c-1.6569 0-3 1.343-3 3s1.3431 3 3 3c1.657 0 3-1.343 3-3s-1.343-3-3-3z" style="opacity:.2"/>
   <path d="m6 9.5c0 1.056 0.4491 1.5 1.5 1.5 7.456 0 13.5 6.044 13.5 13.5 0 0.933 0.509 1.5 1.5 1.5 1.02 0 1.5-0.596 1.5-1.5 0-9.113-7.387-16.5-16.5-16.5-0.9974 0-1.5 0.4855-1.5 1.5zm0 6c0 1.0274 0.42023 1.5 1.5 1.5 4.1422 0 7.5 3.3579 7.5 7.5 0 0.88301 0.50689 1.5 1.5 1.5 0.969 0 1.5-0.538 1.5-1.5 0-5.799-4.701-10.5-10.5-10.5-0.9686 0-1.5 0.428-1.5 1.5zm3 4.5c-1.6569 0-3 1.343-3 3s1.3431 3 3 3c1.657 0 3-1.343 3-3s-1.343-3-3-3z" style="fill:#ffffff"/>
   <path d="m6.9004 3c-1.95 0-3.9004 1.9504-3.9004 3.9004v1c0-1.95 1.9504-3.9004 3.9004-3.9004 12.717 0 21.695 8.71 22.08 21.258 3e-3 -0.053 0.02-0.105 0.02-0.158 0-13-9.1-22.1-22.1-22.1z" style="fill:#ffffff;opacity:.1"/>
   <path d="m3 25.1v1c0 1.95 1.9504 3.9 3.9004 3.9h18.2c1.95 0 3.9-1.95 3.9-3.9 0-0.284-0.011-0.563-0.02-0.842-0.101 1.895-1.983 3.742-3.88 3.742h-18.2c-1.9496 0-3.9-1.95-3.9-3.9z" style="opacity:.2"/>
  </g>
 </g>
</svg>

<svg xmlns="http://www.w3.org/2000/svg" width="32" height="32" version="1.1">
 <g id="22-22-akregator" transform="translate(31.881356,7.8559322)">
  <rect style="opacity:0.001" width="22" height="22" x="0" y="0"/>
  <path style="fill:#aaaaac" d="m 5.0000005,2.9999997 c -1.108,0 -2,0.8920001 -2,2.0000001 V 17 c 0,1.108 0.892,2 2,2 H 17 c 1.108,0 2,-0.892 2,-2 C 19,3 9,3 5.0000005,2.9999997 Z m 0,2.0000001 c 6.2222215,0 9.4609935,2.2049917 10.8847655,4.9101562 C 17.308536,12.61532 17,15.611111 17,17 H 15 C 15,15.388889 15.191463,12.884678 14.115234,10.839844 13.039005,8.7950078 10.777778,6.9999998 5.0000005,6.9999998 Z m 0,4 c 3.910823,0 6.1296825,1.1321932 7.1582015,2.8632812 C 13.186721,13.594369 12.999999,15.5516 12.999999,17 h -2 c 0,-1.5516 0.04484,-3.094371 -0.560547,-4.113282 C 9.8340715,11.867807 8.5535725,11 5.0000005,11 Z m 2.001953,3.9999992 c 1.104335,0 1.997387,0.896324 1.998046,2.000001 0,1.104994 -0.893711,2 -1.998046,2 -1.106972,0 -2.001953,-0.895006 -2.001953,-2 0,-1.103677 0.894981,-2.000001 2.001953,-2.000001 z"/>
 </g>
 <g id="akregator">
  <rect width="32" height="32" x="0" y="0" style="opacity:0.001"/>
  <g transform="translate(-2e-4)">
   <path style="fill:#f59335" d="M 29,25.1 C 29,12.1 19.9,3 6.9,3 4.95,3 3,4.95 3,6.9 V 25.1 C 3,27.05 4.95,29 6.9,29 h 18.2 c 1.95,0 3.9,-1.95 3.9,-3.9 z"/>
   <path style="opacity:0.2" d="M 6,10.5 C 6,11.556 6.4491,12 7.5,12 14.956,12 21,18.044 21,25.5 21,26.433 21.509,27 22.5,27 23.52,27 24,26.404 24,25.5 24,16.387 16.613,9 7.5,9 6.5026,9 6,9.4855 6,10.5 Z m 0,6 c 0,1.0274 0.42023,1.5 1.5,1.5 4.1422,0 7.5,3.3579 7.5,7.5 0,0.88301 0.50689,1.5 1.5,1.5 C 17.469,27 18,26.462 18,25.5 18,19.701 13.299,15 7.5,15 6.5314,15 6,15.428 6,16.5 Z M 9,21 c -1.6569,0 -3,1.343 -3,3 0,1.657 1.3431,3 3,3 1.657,0 3,-1.343 3,-3 0,-1.657 -1.343,-3 -3,-3 z"/>
   <path style="fill:#ffffff" d="M 6,9.5 C 6,10.556 6.4491,11 7.5,11 14.956,11 21,17.044 21,24.5 21,25.433 21.509,26 22.5,26 23.52,26 24,25.404 24,24.5 24,15.387 16.613,8 7.5,8 6.5026,8 6,8.4855 6,9.5 Z m 0,6 c 0,1.0274 0.42023,1.5 1.5,1.5 4.1422,0 7.5,3.3579 7.5,7.5 0,0.88301 0.50689,1.5 1.5,1.5 C 17.469,26 18,25.462 18,24.5 18,18.701 13.299,14 7.5,14 6.5314,14 6,14.428 6,15.5 Z M 9,20 c -1.6569,0 -3,1.343 -3,3 0,1.657 1.3431,3 3,3 1.657,0 3,-1.343 3,-3 0,-1.657 -1.343,-3 -3,-3 z"/>
   <path style="opacity:0.1;fill:#ffffff" d="M 6.9004,3 C 4.9504,3 3,4.9504 3,6.9004 v 1 C 3,5.9504 4.9504,4 6.9004,4 c 12.717,0 21.695,8.71 22.08,21.258 0.003,-0.053 0.02,-0.105 0.02,-0.158 0,-13 -9.1,-22.1 -22.1,-22.1 z"/>
   <path style="opacity:0.2" d="m 3,25.1 v 1 C 3,28.05 4.9504,30 6.9004,30 h 18.2 c 1.95,0 3.9,-1.95 3.9,-3.9 0,-0.284 -0.011,-0.563 -0.02,-0.842 -0.101,1.895 -1.983,3.742 -3.88,3.742 h -18.2 c -1.9496,0 -3.9,-1.95 -3.9,-3.9 z"/>
  </g>
 </g>
</svg>
